X: 16828
T: Harvest Fair
R: polka
M: 2/4
K: Amajor
|:f/|ec d>f|ec dc|B2 ed|Bc d>f|
ec d>f|ec dc|Bc/B/ ed|Bc A3/2:|
|:f/|ec e>a|gf fe|f/g/f/e/ fg|fe c>d|
ec e>a|fd fa|gb eg|ba a3/2:|

